X: 30088
T: Oidche Mhaith
R: jig
M: 6/8
K: Gminor
G3/2A/G D3|F2 G A F2|G2 F D d2|c A2 G3|
G B2 D2 D|B2 G A F2|G2 G A d2|c A2 G3|
B2 c d2 d|f2 c d G2|B2 c d2 d|d3/2c/B A3|
A d2 G2 A|B2 G F D2|F2 G A d2|c A2 G3|

